packages/core/src/svgs/networks/branded/shimmer-evm.svg

<svg width="24" height="24" viewBox="0 0 24 24" fill="none" xmlns="http://www.w3.org/2000/svg">
<path d="M19.207 4.69679C15.9065 1.16847 10.4822 1.09243 7.09152 4.527C3.70091 7.96161 3.62786 13.6061 6.92842 17.1344L9.09827 14.9366C6.96969 12.6473 7.02102 8.99577 9.21604 6.7723C11.4111 4.54879 14.9202 4.59373 17.0621 6.86961L19.207 4.69679Z" fill="#00E0CA"/>
<path d="M4.79307 19.3033C8.09359 22.8315 13.5178 22.9075 16.9085 19.473C20.2991 16.0384 20.3721 10.3939 17.0716 6.86557L14.902 9.06332C17.0305 11.3526 16.9793 15.0041 14.7842 17.2276C12.5892 19.4511 9.08006 19.4062 6.93823 17.1303L4.79307 19.3033Z" fill="#00E0CA"/>
</svg>

<svg xmlns="http://www.w3.org/2000/svg" width="24" height="24" fill="none" viewBox="0 0 24 24">
    <path fill="#00E0CA" d="M19.207 4.697c-3.3-3.529-8.725-3.605-12.115-.17s-3.464 9.08-.164 12.607l2.17-2.197c-2.128-2.29-2.077-5.941.118-8.165s5.704-2.178 7.846.098zM4.793 19.303c3.3 3.528 8.725 3.604 12.116.17s3.463-9.08.163-12.607l-2.17 2.197c2.129 2.29 2.077 5.941-.118 8.165s-5.704 2.178-7.846-.098z"/>
</svg>
